!!!OTL: 1225. Schlesische Sommerliedchen. / [Am Sonntag Laetare.]
!!!ARE: Europa, Mitteleuropa, Deutschland, Schlesien, Glogau
!!!SCT: E1225B
!!!TXL: @@DE
!!!YEM: Copyright 1995, estate of Helmut Schaffrath.
**kern	**text
*ICvox	*
*M2/4	*
*k[b-]	*
*F:	*
!LO:TX:a:t=I.	!
{8f	Der
=1	=1
8cc	N.
8cc	N.
8cc	hat
8dd	'ne
=2	=2
8cc	ho-
8b-	-he
8a}	Mütʒe,
{8a	er
=3	=3
8cc	hat
8cc	ſie
8cc	voll
8dd	Du-
=4	=4
8cc	-ka-
8b-	-ten
8a}	ſitʒen,
{8a	er
=5	=5
8cc	wird
8cc	ſich
8cc	wohl
8dd	be-
=6	=6
4cc	-den-
8a}	-ken
{8a	und
=7	=7
8cc	wird
8cc	uns
8cc	ei-
8dd	-nen
=8	=8
4cc	ſchen-
8a}	-ken.
==	==
!!!AGN: Ansinge -, Brauchtums - Lied, Kirchen - Fest, Sommer - Tags - Lied
!!!ONB: ESAC (Essen Associative Code) Database: ERK3
!!!AMT: simple duple
!!!AIN: vox
!!!EED: Helmut Schaffrath
!!!EEV: 1.0
!!!GTL: Ansingelieder an Volks- und Kirchenfesten.
!!!URL-scan: https://rosdok.uni-rostock.de/mcrviewer/recordIdentifier/rosdok_ppn745177999/iview2/phys_0140.iview2?x=-128.77276441889308&y=788.5135317059467&scale=0.5870222003877485&rotation=0&layout=singlePageLayout
!!!ENC: Anna Maria Matuszewska
!!!EEV: 2024/12/27
*-	*-
